images/6604306.svg

<?xml version="1.0" encoding="UTF-8"?>
<svg xmlns="http://www.w3.org/2000/svg" xmlns:xlink="http://www.w3.org/1999/xlink" width="300pt" height="300pt" viewBox="0 0 300 300" version="1.1">
<defs>
<g>
<symbol overflow="visible" id="glyph0-0">
<path style="stroke:none;" d="M 0.453125 1.59375 L 0.453125 -6.34375 L 4.953125 -6.34375 L 4.953125 1.59375 Z M 0.953125 1.09375 L 4.453125 1.09375 L 4.453125 -5.84375 L 0.953125 -5.84375 Z M 0.953125 1.09375 "/>
</symbol>
<symbol overflow="visible" id="glyph0-1">
<path style="stroke:none;" d="M 3.546875 -5.953125 C 2.898438 -5.953125 2.382812 -5.710938 2 -5.234375 C 1.625 -4.753906 1.4375 -4.101562 1.4375 -3.28125 C 1.4375 -2.445312 1.625 -1.789062 2 -1.3125 C 2.382812 -0.832031 2.898438 -0.59375 3.546875 -0.59375 C 4.191406 -0.59375 4.703125 -0.832031 5.078125 -1.3125 C 5.453125 -1.789062 5.640625 -2.445312 5.640625 -3.28125 C 5.640625 -4.101562 5.453125 -4.753906 5.078125 -5.234375 C 4.703125 -5.710938 4.191406 -5.953125 3.546875 -5.953125 Z M 3.546875 -6.6875 C 4.460938 -6.6875 5.195312 -6.375 5.75 -5.75 C 6.300781 -5.132812 6.578125 -4.3125 6.578125 -3.28125 C 6.578125 -2.238281 6.300781 -1.410156 5.75 -0.796875 C 5.195312 -0.179688 4.460938 0.125 3.546875 0.125 C 2.617188 0.125 1.878906 -0.179688 1.328125 -0.796875 C 0.773438 -1.410156 0.5 -2.238281 0.5 -3.28125 C 0.5 -4.3125 0.773438 -5.132812 1.328125 -5.75 C 1.878906 -6.375 2.617188 -6.6875 3.546875 -6.6875 Z M 3.546875 -6.6875 "/>
</symbol>
<symbol overflow="visible" id="glyph0-2">
<path style="stroke:none;" d="M 0.890625 -6.5625 L 1.765625 -6.5625 L 1.765625 -3.875 L 5 -3.875 L 5 -6.5625 L 5.890625 -6.5625 L 5.890625 0 L 5 0 L 5 -3.125 L 1.765625 -3.125 L 1.765625 0 L 0.890625 0 Z M 0.890625 -6.5625 "/>
</symbol>
<symbol overflow="visible" id="glyph0-3">
<path style="stroke:none;" d="M 0.890625 -6.5625 L 4.65625 -6.5625 L 4.65625 -5.8125 L 1.765625 -5.8125 L 1.765625 -3.875 L 4.375 -3.875 L 4.375 -3.140625 L 1.765625 -3.140625 L 1.765625 0 L 0.890625 0 Z M 0.890625 -6.5625 "/>
</symbol>
</g>
</defs>
<g id="surface43085">
<rect x="0" y="0" width="300" height="300" style="fill:rgb(100%,100%,100%);fill-opacity:1;stroke:none;"/>
<path style=" stroke:none;fill-rule:nonzero;fill:rgb(0%,0%,0%);fill-opacity:1;" d="M 93.539062 169.269531 L 70.503906 177.832031 L 74.824219 185.199219 Z M 93.539062 169.269531 "/>
<path style="fill:none;stroke-width:1.2;stroke-linecap:butt;stroke-linejoin:miter;stroke:rgb(0%,0%,0%);stroke-opacity:1;stroke-miterlimit:10;" d="M 93.539062 169.269531 L 115.71875 178.957031 "/>
<path style="fill:none;stroke-width:1.2;stroke-linecap:butt;stroke-linejoin:miter;stroke:rgb(0%,0%,0%);stroke-opacity:1;stroke-miterlimit:10;" d="M 95.902344 145.183594 L 93.539062 169.269531 "/>
<path style="fill:none;stroke-width:1;stroke-linecap:butt;stroke-linejoin:miter;stroke:rgb(0%,0%,0%);stroke-opacity:1;stroke-miterlimit:10;" d="M 131.785156 160.859375 L 131.785156 160.859375 M 129.433594 162.722656 L 130.214844 163.414062 M 127.082031 164.585938 L 128.644531 165.972656 M 124.730469 166.449219 L 127.070312 168.527344 M 122.378906 168.3125 L 125.5 171.082031 M 120.03125 170.175781 L 123.929688 173.636719 M 117.679688 172.039062 L 122.355469 176.191406 M 115.328125 173.902344 L 120.785156 178.746094 M 112.976562 175.765625 L 119.214844 181.304688 M 112.523438 176.121094 L 118.910156 181.792969 "/>
<path style="fill:none;stroke-width:1.2;stroke-linecap:butt;stroke-linejoin:miter;stroke:rgb(0%,0%,0%);stroke-opacity:1;stroke-miterlimit:10;" d="M 131.785156 160.859375 L 155.988281 160.691406 "/>
<path style="fill:none;stroke-width:1.2;stroke-linecap:butt;stroke-linejoin:miter;stroke:rgb(0%,0%,0%);stroke-opacity:1;stroke-miterlimit:10;" d="M 119.539062 139.984375 L 131.785156 160.859375 "/>
<path style=" stroke:none;fill-rule:nonzero;fill:rgb(0%,0%,0%);fill-opacity:1;" d="M 155.988281 160.691406 L 164.550781 183.726562 L 171.917969 179.40625 Z M 155.988281 160.691406 "/>
<path style="fill:none;stroke-width:1.2;stroke-linecap:butt;stroke-linejoin:miter;stroke:rgb(0%,0%,0%);stroke-opacity:1;stroke-miterlimit:10;" d="M 167.941406 139.648438 L 155.988281 160.691406 "/>
<path style="fill:none;stroke-width:1.2;stroke-linecap:butt;stroke-linejoin:miter;stroke:rgb(0%,0%,0%);stroke-opacity:1;stroke-miterlimit:10;" d="M 168.234375 181.566406 L 192.4375 181.398438 "/>
<path style="fill:none;stroke-width:1.2;stroke-linecap:butt;stroke-linejoin:miter;stroke:rgb(0%,0%,0%);stroke-opacity:1;stroke-miterlimit:10;" d="M 192.4375 181.398438 L 204.390625 160.351562 "/>
<path style=" stroke:none;fill-rule:nonzero;fill:rgb(0%,0%,0%);fill-opacity:1;" d="M 192.4375 181.398438 L 201 204.433594 L 208.367188 200.109375 Z M 192.4375 181.398438 "/>
<path style="fill:none;stroke-width:1.2;stroke-linecap:butt;stroke-linejoin:miter;stroke:rgb(0%,0%,0%);stroke-opacity:1;stroke-miterlimit:10;" d="M 204.390625 160.351562 L 228.59375 160.183594 "/>
<path style="fill:none;stroke-width:1.2;stroke-linecap:butt;stroke-linejoin:miter;stroke:rgb(0%,0%,0%);stroke-opacity:1;stroke-miterlimit:10;" d="M 206.773438 154.640625 L 226.132812 154.507812 "/>
<path style="fill:none;stroke-width:1.2;stroke-linecap:butt;stroke-linejoin:miter;stroke:rgb(0%,0%,0%);stroke-opacity:1;stroke-miterlimit:10;" d="M 192.144531 139.476562 L 204.390625 160.351562 "/>
<path style="fill:none;stroke-width:1.2;stroke-linecap:butt;stroke-linejoin:miter;stroke:rgb(0%,0%,0%);stroke-opacity:1;stroke-miterlimit:10;" d="M 228.59375 160.183594 L 240.546875 139.140625 "/>
<path style="fill:none;stroke-width:1.2;stroke-linecap:butt;stroke-linejoin:miter;stroke:rgb(0%,0%,0%);stroke-opacity:1;stroke-miterlimit:10;" d="M 240.566406 141.988281 L 252.667969 141.902344 "/>
<path style="fill:none;stroke-width:1.2;stroke-linecap:butt;stroke-linejoin:miter;stroke:rgb(100%,0%,0%);stroke-opacity:1;stroke-miterlimit:10;" d="M 252.667969 141.902344 L 264.769531 141.816406 "/>
<path style="fill:none;stroke-width:1.2;stroke-linecap:butt;stroke-linejoin:miter;stroke:rgb(0%,0%,0%);stroke-opacity:1;stroke-miterlimit:10;" d="M 240.527344 136.292969 L 252.628906 136.207031 "/>
<path style="fill:none;stroke-width:1.2;stroke-linecap:butt;stroke-linejoin:miter;stroke:rgb(100%,0%,0%);stroke-opacity:1;stroke-miterlimit:10;" d="M 252.628906 136.207031 L 264.730469 136.125 "/>
<path style="fill:none;stroke-width:1.2;stroke-linecap:butt;stroke-linejoin:miter;stroke:rgb(0%,0%,0%);stroke-opacity:1;stroke-miterlimit:10;" d="M 240.546875 139.140625 L 228.300781 118.265625 "/>
<path style=" stroke:none;fill-rule:nonzero;fill:rgb(100%,100%,100%);fill-opacity:1;" d="M 260.75 133.472656 L 268.75 133.472656 L 268.75 144.472656 L 260.75 144.472656 Z M 260.75 133.472656 "/>
<g style="fill:rgb(100%,0%,0%);fill-opacity:1;">
  <use xlink:href="#glyph0-1" x="260.75" y="142.135742"/>
</g>
<path style="fill:none;stroke-width:1.2;stroke-linecap:butt;stroke-linejoin:miter;stroke:rgb(0%,0%,0%);stroke-opacity:1;stroke-miterlimit:10;" d="M 228.300781 118.265625 L 204.097656 118.433594 "/>
<path style="fill:none;stroke-width:1.2;stroke-linecap:butt;stroke-linejoin:miter;stroke:rgb(0%,0%,0%);stroke-opacity:1;stroke-miterlimit:10;" d="M 225.921875 123.976562 L 206.558594 124.113281 "/>
<path style="fill:none;stroke-width:1.2;stroke-linecap:butt;stroke-linejoin:miter;stroke:rgb(0%,0%,0%);stroke-opacity:1;stroke-miterlimit:10;" d="M 204.097656 118.433594 L 192.144531 139.476562 "/>
<path style="fill:none;stroke-width:1.2;stroke-linecap:butt;stroke-linejoin:miter;stroke:rgb(0%,0%,0%);stroke-opacity:1;stroke-miterlimit:10;" d="M 192.144531 139.476562 L 167.941406 139.648438 "/>
<path style=" stroke:none;fill-rule:nonzero;fill:rgb(0%,0%,0%);fill-opacity:1;" d="M 192.144531 139.476562 L 190.390625 124.664062 L 182.550781 128.058594 Z M 192.144531 139.476562 "/>
<path style="fill:none;stroke-width:1.2;stroke-linecap:butt;stroke-linejoin:miter;stroke:rgb(0%,0%,0%);stroke-opacity:1;stroke-miterlimit:10;" d="M 167.941406 139.648438 L 155.695312 118.773438 "/>
<path style="fill:none;stroke-width:1;stroke-linecap:butt;stroke-linejoin:miter;stroke:rgb(0%,0%,0%);stroke-opacity:1;stroke-miterlimit:10;" d="M 167.941406 139.648438 L 167.941406 139.648438 M 169.839844 137.324219 L 168.253906 136.664062 M 171.738281 135 L 168.566406 133.679688 M 173.636719 132.675781 L 168.878906 130.695312 M 175.53125 130.351562 L 169.1875 127.710938 M 177.378906 128.09375 L 169.492188 124.8125 "/>
<path style="fill:none;stroke-width:1.2;stroke-linecap:butt;stroke-linejoin:miter;stroke:rgb(0%,0%,0%);stroke-opacity:1;stroke-miterlimit:10;" d="M 155.695312 118.773438 L 131.492188 118.941406 "/>
<path style=" stroke:none;fill-rule:nonzero;fill:rgb(0%,0%,0%);fill-opacity:1;" d="M 155.695312 118.773438 L 171.363281 99.835938 L 163.9375 95.617188 Z M 155.695312 118.773438 "/>
<path style="fill:none;stroke-width:1.2;stroke-linecap:butt;stroke-linejoin:miter;stroke:rgb(0%,0%,0%);stroke-opacity:1;stroke-miterlimit:10;" d="M 131.492188 118.941406 L 119.539062 139.984375 "/>
<path style="fill:none;stroke-width:1.2;stroke-linecap:butt;stroke-linejoin:miter;stroke:rgb(0%,0%,0%);stroke-opacity:1;stroke-miterlimit:10;" d="M 119.539062 139.984375 L 95.902344 145.183594 "/>
<path style="fill:none;stroke-width:1;stroke-linecap:butt;stroke-linejoin:miter;stroke:rgb(0%,0%,0%);stroke-opacity:1;stroke-miterlimit:10;" d="M 119.539062 139.984375 L 119.539062 139.984375 M 118.542969 137.15625 L 117.632812 137.667969 M 117.546875 134.324219 L 115.730469 135.347656 M 116.550781 131.496094 L 113.824219 133.03125 M 115.554688 128.664062 L 111.921875 130.714844 M 114.558594 125.835938 L 110.015625 128.394531 M 113.5625 123.007812 L 108.113281 126.078125 M 112.566406 120.175781 L 106.207031 123.757812 M 111.570312 117.347656 L 104.304688 121.441406 M 111.378906 116.804688 L 103.9375 120.996094 "/>
<path style="fill:none;stroke-width:1;stroke-linecap:butt;stroke-linejoin:miter;stroke:rgb(0%,0%,0%);stroke-opacity:1;stroke-miterlimit:10;" d="M 95.902344 145.183594 L 95.902344 145.183594 M 92.941406 144.679688 L 92.949219 145.722656 M 89.984375 144.179688 L 90 146.265625 M 87.027344 143.679688 L 87.050781 146.808594 M 84.070312 143.179688 L 84.097656 147.351562 M 81.113281 142.679688 L 81.148438 147.890625 M 78.152344 142.179688 L 78.195312 148.433594 M 75.195312 141.675781 L 75.246094 148.976562 M 72.238281 141.175781 L 72.296875 149.519531 M 71.667969 141.082031 L 71.730469 149.621094 "/>
<path style="fill:none;stroke-width:1.2;stroke-linecap:butt;stroke-linejoin:miter;stroke:rgb(0%,0%,0%);stroke-opacity:1;stroke-miterlimit:10;" d="M 95.902344 145.183594 L 93.097656 133.410156 "/>
<path style="fill:none;stroke-width:1.2;stroke-linecap:butt;stroke-linejoin:miter;stroke:rgb(100%,0%,0%);stroke-opacity:1;stroke-miterlimit:10;" d="M 93.097656 133.410156 L 90.292969 121.640625 "/>
<path style="fill:none;stroke-width:1.2;stroke-linecap:butt;stroke-linejoin:miter;stroke:rgb(0%,0%,0%);stroke-opacity:1;stroke-miterlimit:10;" d="M 69.222656 143.945312 L 63.246094 154.46875 "/>
<path style="fill:none;stroke-width:1.2;stroke-linecap:butt;stroke-linejoin:miter;stroke:rgb(100%,0%,0%);stroke-opacity:1;stroke-miterlimit:10;" d="M 63.246094 154.46875 L 57.269531 164.988281 "/>
<path style="fill:none;stroke-width:1.2;stroke-linecap:butt;stroke-linejoin:miter;stroke:rgb(0%,0%,0%);stroke-opacity:1;stroke-miterlimit:10;" d="M 74.175781 146.757812 L 68.199219 157.28125 "/>
<path style="fill:none;stroke-width:1.2;stroke-linecap:butt;stroke-linejoin:miter;stroke:rgb(100%,0%,0%);stroke-opacity:1;stroke-miterlimit:10;" d="M 68.199219 157.28125 L 62.21875 167.800781 "/>
<path style="fill:none;stroke-width:1.2;stroke-linecap:butt;stroke-linejoin:miter;stroke:rgb(0%,0%,0%);stroke-opacity:1;stroke-miterlimit:10;" d="M 71.699219 145.351562 L 59.453125 124.476562 "/>
<path style=" stroke:none;fill-rule:nonzero;fill:rgb(100%,100%,100%);fill-opacity:1;" d="M 51.746094 160.894531 L 59.746094 160.894531 L 59.746094 171.894531 L 51.746094 171.894531 Z M 51.746094 160.894531 "/>
<g style="fill:rgb(100%,0%,0%);fill-opacity:1;">
  <use xlink:href="#glyph0-1" x="51.746094" y="169.557617"/>
</g>
<path style="fill:none;stroke-width:1.2;stroke-linecap:butt;stroke-linejoin:miter;stroke:rgb(0%,0%,0%);stroke-opacity:1;stroke-miterlimit:10;" d="M 59.453125 124.476562 L 47.351562 124.5625 "/>
<path style="fill:none;stroke-width:1.2;stroke-linecap:butt;stroke-linejoin:miter;stroke:rgb(100%,0%,0%);stroke-opacity:1;stroke-miterlimit:10;" d="M 47.351562 124.5625 L 35.25 124.644531 "/>
<path style=" stroke:none;fill-rule:nonzero;fill:rgb(100%,100%,100%);fill-opacity:1;" d="M 20.25 119.144531 L 35.25 119.144531 L 35.25 130.144531 L 20.25 130.144531 Z M 20.25 119.144531 "/>
<g style="fill:rgb(100%,0%,0%);fill-opacity:1;">
  <use xlink:href="#glyph0-2" x="20.25" y="127.807617"/>
  <use xlink:href="#glyph0-1" x="27.264648" y="127.807617"/>
</g>
<path style=" stroke:none;fill-rule:nonzero;fill:rgb(100%,100%,100%);fill-opacity:1;" d="M 83.292969 116.140625 L 98.292969 116.140625 L 98.292969 127.140625 L 83.292969 127.140625 Z M 83.292969 116.140625 "/>
<g style="fill:rgb(100%,0%,0%);fill-opacity:1;">
  <use xlink:href="#glyph0-2" x="83.292969" y="124.803711"/>
  <use xlink:href="#glyph0-1" x="90.307617" y="124.803711"/>
</g>
<path style=" stroke:none;fill-rule:nonzero;fill:rgb(100%,100%,100%);fill-opacity:1;" d="M 160.648438 92.226562 L 175.648438 92.226562 L 175.648438 103.226562 L 160.648438 103.226562 Z M 160.648438 92.226562 "/>
<g style="fill:rgb(100%,0%,0%);fill-opacity:1;">
  <use xlink:href="#glyph0-1" x="160.648438" y="100.889648"/>
  <use xlink:href="#glyph0-2" x="167.990234" y="100.889648"/>
</g>
<path style=" stroke:none;fill-rule:nonzero;fill:rgb(100%,100%,100%);fill-opacity:1;" d="M 170.433594 120.953125 L 176.433594 120.953125 L 176.433594 131.953125 L 170.433594 131.953125 Z M 170.433594 120.953125 "/>
<g style="fill:rgb(20%,80%,80%);fill-opacity:1;">
  <use xlink:href="#glyph0-3" x="170.433594" y="129.616211"/>
</g>
<path style=" stroke:none;fill-rule:nonzero;fill:rgb(100%,100%,100%);fill-opacity:1;" d="M 201.683594 196.773438 L 207.683594 196.773438 L 207.683594 207.773438 L 201.683594 207.773438 Z M 201.683594 196.773438 "/>
<g style="fill:rgb(20%,80%,80%);fill-opacity:1;">
  <use xlink:href="#glyph0-3" x="201.683594" y="205.436523"/>
</g>
</g>
</svg>

<svg xmlns="http://www.w3.org/2000/svg" xmlns:xlink="http://www.w3.org/1999/xlink" width="300pt" height="300pt" viewBox="0 0 300 300"><defs><symbol overflow="visible"><path d="M.453 1.594v-7.938h4.5v7.938zm.5-.5h3.5v-6.938h-3.5zm0 0"/></symbol><symbol overflow="visible" id="a"><path d="M3.547-5.953c-.65 0-1.164.242-1.547.72-.375.48-.563 1.13-.563 1.952 0 .835.188 1.49.563 1.967.383.48.898.72 1.547.72.644 0 1.156-.24 1.53-.72.376-.476.564-1.132.564-1.968 0-.822-.187-1.474-.562-1.954-.375-.477-.887-.72-1.53-.72zm0-.734c.914 0 1.648.312 2.203.937.55.617.828 1.438.828 2.47 0 1.042-.277 1.87-.828 2.483-.555.617-1.29.922-2.203.922-.93 0-1.668-.305-2.22-.922C.774-1.41.5-2.237.5-3.28c0-1.033.273-1.853.828-2.47.55-.625 1.29-.938 2.22-.938zm0 0"/></symbol><symbol overflow="visible" id="b"><path d="M.89-6.563h.876v2.688H5v-2.688h.89V0H5v-3.125H1.766V0H.89zm0 0"/></symbol><symbol overflow="visible" id="c"><path d="M.89-6.563h3.766v.75h-2.89v1.938h2.61v.734h-2.61V0H.89zm0 0"/></symbol></defs><g><path fill="#fff" d="M0 0h300v300H0z"/><path d="M93.54 169.27l-23.036 8.562 4.32 7.367zm0 0"/><path d="M93.54 169.27l22.18 9.687M95.902 145.184L93.54 169.27" stroke-width="1.2" stroke="#000" stroke-miterlimit="10" fill="none"/><path d="M131.785 160.86m-2.35 1.863l.78.69m-3.133 1.173l1.563 1.387m-3.915.476l2.34 2.077m-4.69-.214l3.12 2.77m-5.47-.907l3.9 3.46m-6.25-1.597l4.675 4.15m-7.027-2.288l5.457 4.844m-7.808-2.98l6.238 5.54m-6.692-5.185l6.387 5.673" stroke="#000" stroke-miterlimit="10" fill="none"/><path d="M131.785 160.86l24.203-.17M119.54 139.984l12.245 20.875" stroke-width="1.2" stroke="#000" stroke-miterlimit="10" fill="none"/><path d="M155.988 160.69l8.563 23.037 7.368-4.32zm0 0"/><path d="M167.94 139.648L155.99 160.69M168.234 181.566l24.203-.168M192.438 181.398l11.953-21.046" stroke-width="1.2" stroke="#000" stroke-miterlimit="10" fill="none"/><path d="M192.438 181.398L201 204.434l7.367-4.325zm0 0"/><path d="M204.39 160.352l24.204-.168M206.773 154.64l19.36-.132M192.145 139.477l12.246 20.875M228.594 160.184l11.953-21.043M240.566 141.988l12.102-.086" stroke-width="1.2" stroke="#000" stroke-miterlimit="10" fill="none"/><path d="M252.668 141.902l12.102-.086" stroke-width="1.2" stroke="#f00" stroke-miterlimit="10" fill="none"/><path d="M240.527 136.293l12.102-.086" stroke-width="1.2" stroke="#000" stroke-miterlimit="10" fill="none"/><path d="M252.63 136.207l12.1-.082" stroke-width="1.2" stroke="#f00" stroke-miterlimit="10" fill="none"/><path d="M240.547 139.14L228.3 118.267" stroke-width="1.2" stroke="#000" stroke-miterlimit="10" fill="none"/><path d="M260.75 133.473h8v11h-8zm0 0" fill="#fff"/><use xlink:href="#a" x="260.75" y="142.136" fill="#f00"/><path d="M228.3 118.266l-24.202.168M225.922 123.977l-19.363.136M204.098 118.434l-11.953 21.043M192.145 139.477l-24.204.17" stroke-width="1.2" stroke="#000" stroke-miterlimit="10" fill="none"/><path d="M192.145 139.477l-1.754-14.813-7.84 3.395zm0 0"/><path d="M167.94 139.648l-12.245-20.875" stroke-width="1.2" stroke="#000" stroke-miterlimit="10" fill="none"/><path d="M167.94 139.648m1.9-2.324l-1.586-.66m3.484-1.664l-3.172-1.32m5.07-1.004l-4.757-1.98m6.65-.344l-6.343-2.64m8.192.382l-7.888-3.28" stroke="#000" stroke-miterlimit="10" fill="none"/><path d="M155.695 118.773l-24.203.168" stroke-width="1.2" stroke="#000" stroke-miterlimit="10" fill="none"/><path d="M155.695 118.773l15.668-18.937-7.425-4.22zm0 0"/><path d="M131.492 118.94l-11.953 21.044M119.54 139.984l-23.638 5.2" stroke-width="1.2" stroke="#000" stroke-miterlimit="10" fill="none"/><path d="M119.54 139.984m-.997-2.828l-.91.512m-.086-3.344l-1.817 1.024m.82-3.852l-2.726 1.535m1.73-4.366l-3.632 2.05m2.637-4.878l-4.544 2.56m3.546-5.388l-5.45 3.07m4.454-5.902l-6.36 3.582m5.364-6.41l-7.265 4.093m7.074-4.635l-7.442 4.19M95.902 145.184m-2.96-.504l.007 1.043m-2.966-1.543l.016 2.086m-2.973-2.586l.024 3.13m-2.98-3.63l.028 4.172m-2.985-4.672l.035 5.21m-2.996-5.71l.043 6.254m-3-6.758l.05 7.3m-3.007-7.8l.06 8.344m-.63-8.438l.062 8.54" stroke="#000" stroke-miterlimit="10" fill="none"/><path d="M95.902 145.184l-2.804-11.774" stroke-width="1.2" stroke="#000" stroke-miterlimit="10" fill="none"/><path d="M93.098 133.41l-2.805-11.77" stroke-width="1.2" stroke="#f00" stroke-miterlimit="10" fill="none"/><path d="M69.223 143.945l-5.977 10.524" stroke-width="1.2" stroke="#000" stroke-miterlimit="10" fill="none"/><path d="M63.246 154.47l-5.976 10.518" stroke-width="1.2" stroke="#f00" stroke-miterlimit="10" fill="none"/><path d="M74.176 146.758L68.2 157.28" stroke-width="1.2" stroke="#000" stroke-miterlimit="10" fill="none"/><path d="M68.2 157.28l-5.98 10.52" stroke-width="1.2" stroke="#f00" stroke-miterlimit="10" fill="none"/><path d="M71.7 145.352l-12.247-20.875" stroke-width="1.2" stroke="#000" stroke-miterlimit="10" fill="none"/><path d="M51.746 160.895h8v11h-8zm0 0" fill="#fff"/><use xlink:href="#a" x="51.746" y="169.558" fill="#f00"/><path d="M59.453 124.477l-12.1.085" stroke-width="1.2" stroke="#000" stroke-miterlimit="10" fill="none"/><path d="M47.352 124.563l-12.102.082" stroke-width="1.2" stroke="#f00" stroke-miterlimit="10" fill="none"/><path d="M20.25 119.145h15v11h-15zm0 0" fill="#fff"/><g fill="#f00"><use xlink:href="#b" x="20.25" y="127.808"/><use xlink:href="#a" x="27.265" y="127.808"/></g><path d="M83.293 116.14h15v11h-15zm0 0" fill="#fff"/><g fill="#f00"><use xlink:href="#b" x="83.293" y="124.804"/><use xlink:href="#a" x="90.308" y="124.804"/></g><path d="M160.648 92.227h15v11h-15zm0 0" fill="#fff"/><g fill="#f00"><use xlink:href="#a" x="160.648" y="100.89"/><use xlink:href="#b" x="167.99" y="100.89"/></g><path d="M170.434 120.953h6v11h-6zm0 0" fill="#fff"/><use xlink:href="#c" x="170.434" y="129.616" fill="#3cc"/><path d="M201.684 196.773h6v11h-6zm0 0" fill="#fff"/><use xlink:href="#c" x="201.684" y="205.437" fill="#3cc"/></g></svg>
